;FLAVOR:Marlin
;TIME:9884
;Filament used: 7.08805m
;Layer height: 0.2
;MINX:19.003
;MINY:19.001
;MINZ:0.2
;MAXX:131.001
;MAXY:130.996
;MAXZ:22.8
;Generated with Cura_SteamEngine 5.2.1
M140 S50
M105
M190 S50
M104 S200
M105
M109 S200
M82 ;absolute extrusion mode
M201 X500.00 Y500.00 Z100.00 E5000.00 ;Setup machine max acceleration
M203 X500.00 Y500.00 Z10.00 E50.00 ;Setup machine max feedrate
M204 P500.00 R1000.00 T500.00 ;Setup Print/Retract/Travel acceleration
M205 X8.00 Y8.00 Z0.40 E5.00 ;Setup Jerk
M220 S100 ;Reset Feedrate
M221 S100 ;Reset Flowrate

G28 ;Home

G92 E0 ;Reset Extruder
G1 Z2.0 F3000 ;Move Z Axis up
G1 X10.1 Y20 Z0.28 F5000.0 ;Move to start position
G1 X10.1 Y100.0 Z0.28 F1500.0 E8 ;Draw the first line
G1 X10.4 Y100.0 Z0.28 F5000.0 ;Move to side a little
G1 X10.4 Y20 Z0.28 F1500.0 E15 ;Draw the second line
G92 E0 ;Reset Extruder
G1 Z2.0 F3000 ;Move Z Axis up

G92 E0
G92 E0
G1 F2700 E-5
;LAYER_COUNT:114
;LAYER:0
M107
G0 F6000 X35.054 Y35.756 Z0.2
;TYPE:SKIRT
G1 F2700 E0
G1 F1200 X35.949 Y34.861 E0.0421
G1 X37.029 Y33.841 E0.09151
G1 X37.96 Y32.998 E0.13328
G1 X38.94 Y32.157 E0.17623
G1 X40.053 Y31.24 E0.2242
G1 X41.212 Y30.343 E0.27294
G1 X42.219 Y29.595 E0.31466
G1 X43.308 Y28.832 E0.35889
G1 X44.452 Y28.064 E0.40472
G1 X45.538 Y27.378 E0.44744
G1 X46.81 Y26.61 E0.49686
G1 X47.953 Y25.966 E0.5405
G1 X49.158 Y25.319 E0.58599
G1 X50.497 Y24.648 E0.6358
G1 X51.648 Y24.1 E0.6782
G1 X52.843 Y23.572 E0.72165
G1 X53.801 Y23.166 E0.75626
G1 X55.525 Y22.497 E0.81777
G1 X56.661 Y22.087 E0.85794
G1 X57.856 Y21.691 E0.89981
G1 X58.951 Y21.348 E0.93797
G1 X60.73 Y20.85 E0.99942
G1 X61.895 Y20.554 E1.0394
G1 X63.179 Y20.264 E1.08318
G1 X64.233 Y20.044 E1.11899
G1 X65.87 Y19.752 E1.17429
G1 X67.288 Y19.533 E1.22202
G1 X68.732 Y19.354 E1.27041
G1 X69.967 Y19.226 E1.31171
G1 X71.468 Y19.113 E1.36177
G1 X72.66 Y19.048 E1.40148
G1 X74.001 Y19.011 E1.4461
G1 X75.472 Y19.001 E1.49502
G1 X76.976 Y19.036 E1.54506
G1 X77.8 Y19.068 E1.57249
G1 X79.634 Y19.192 E1.63363
G1 X80.896 Y19.308 E1.67578
G1 X82.197 Y19.465 E1.71936
G1 X83.586 Y19.66 E1.76601
G1 X84.826 Y19.87 E1.80784
G1 X86.291 Y20.148 E1.85744
G1 X87.551 Y20.426 E1.90036
G1 X88.9 Y20.751 E1.94651
G1 X90.153 Y21.091 E1.98969
G1 X91.587 Y21.511 E2.03939
G1 X92.795 Y21.905 E2.08165
G1 X94.196 Y22.392 E2.13098
G1 X95.474 Y22.879 E2.17647
G1 X96.699 Y23.373 E2.2204
G1 X97.889 Y23.893 E2.26359
G1 X99.173 Y24.485 E2.31062
G1 X100.344 Y25.066 E2.3541
G1 X101.631 Y25.736 E2.40236
G1 X102.898 Y26.445 E2.45065
G1 X103.948 Y27.06 E2.49112
G1 X105.055 Y27.75 E2.53451
G1 X106.294 Y28.557 E2.58369
G1 X107.463 Y29.37 E2.63105
G1 X108.198 Y29.898 E2.66115
G1 X109.67 Y31.026 E2.72283
G1 X110.665 Y31.825 E2.76527
G1 X111.781 Y32.775 E2.81402
G1 X112.709 Y33.598 E2.85527
G1 X113.798 Y34.62 E2.90494
G1 X114.681 Y35.482 E2.94599
G1 X115.716 Y36.554 E2.99555
G1 X116.545 Y37.448 E3.0361
G1 X117.525 Y38.566 E3.08555
G1 X118.34 Y39.534 E3.12763
G1 X119.146 Y40.548 E3.17072
G1 X119.999 Y41.666 E3.21749
G1 X120.862 Y42.869 E3.26673
G1 X121.599 Y43.942 E3.31003
G1 X122.36 Y45.121 E3.3567
G1 X123.053 Y46.242 E3.40053
G1 X123.682 Y47.328 E3.44227
G1 X124.385 Y48.595 E3.49047
G1 X125.019 Y49.823 E3.53643
G1 X125.608 Y51.022 E3.58086
G1 X126.113 Y52.126 E3.62124
G1 X126.718 Y53.521 E3.67182
G1 X127.263 Y54.89 E3.72082
G1 X127.686 Y56.017 E3.76086
G1 X128.092 Y57.195 E3.8023
G1 X128.455 Y58.307 E3.84121
G1 X128.917 Y59.878 E3.89567
G1 X129.306 Y61.324 E3.94548
G1 X129.595 Y62.546 E3.98724
G1 X129.821 Y63.565 E4.02196
G1 X130.134 Y65.204 E4.07746
G1 X130.373 Y66.638 E4.12581
G1 X130.565 Y68.051 E4.17324
G1 X130.71 Y69.294 E4.21486
G1 X130.822 Y70.566 E4.25733
G1 X130.924 Y72.059 E4.30711
G1 X130.974 Y73.343 E4.34984
G1 X131.001 Y74.724 E4.39578
G1 X130.989 Y76.003 E4.43833
G1 X130.945 Y77.506 E4.48834
G1 X130.86 Y78.947 E4.53635
G1 X130.763 Y80.168 E4.57709
G1 X130.63 Y81.413 E4.61873
G1 X130.486 Y82.584 E4.65797
G1 X130.201 Y84.42 E4.71977
G1 X129.988 Y85.603 E4.75975
G1 X129.719 Y86.901 E4.80384
G1 X129.424 Y88.2 E4.84814
G1 X129.034 Y89.704 E4.89982
G1 X128.689 Y90.93 E4.94218
G1 X128.298 Y92.183 E4.98584
G1 X127.98 Y93.146 E5.01957
G1 X127.37 Y94.827 E5.07905
G1 X126.88 Y96.086 E5.12398
G1 X126.41 Y97.2 E5.1642
G1 X125.813 Y98.539 E5.21296
G1 X125.167 Y99.88 E5.26246
G1 X124.598 Y101.002 E5.30431
G1 X123.896 Y102.294 E5.35321
G1 X123.292 Y103.355 E5.39382
G1 X122.517 Y104.63 E5.44344
G1 X121.823 Y105.721 E5.48645
G1 X121.123 Y106.756 E5.52801
G1 X120.289 Y107.938 E5.57612
G1 X119.438 Y109.074 E5.62333
G1 X118.652 Y110.081 E5.66582
G1 X117.837 Y111.067 E5.70837
G1 X117.099 Y111.931 E5.74616
G1 X115.887 Y113.264 E5.80608
G1 X114.985 Y114.21 E5.84956
G1 X113.939 Y115.244 E5.89848
G1 X113.063 Y116.078 E5.93871
G1 X112.145 Y116.904 E5.97978
G1 X111 Y117.896 E6.03017
G1 X109.885 Y118.804 E6.07799
G1 X108.9 Y119.574 E6.11958
G1 X107.679 Y120.474 E6.17003
G1 X106.667 Y121.187 E6.2112
G1 X105.599 Y121.898 E6.25387
G1 X104.385 Y122.673 E6.30178
G1 X103.231 Y123.362 E6.34648
G1 X102.324 Y123.884 E6.38129
G1 X100.886 Y124.656 E6.43557
G1 X99.596 Y125.311 E6.48369
G1 X98.241 Y125.948 E6.53349
G1 X97.456 Y126.303 E6.56215
G1 X95.754 Y127.01 E6.62344
G1 X94.609 Y127.455 E6.6643
G1 X93.155 Y127.974 E6.71565
G1 X92.317 Y128.257 E6.74507
G1 X90.588 Y128.785 E6.8052
G1 X89.44 Y129.107 E6.84485
G1 X87.985 Y129.472 E6.89475
G1 X87.08 Y129.683 E6.92565
G1 X85.307 Y130.041 E6.98582
G1 X84.06 Y130.264 E7.02795
G1 X82.58 Y130.484 E7.07771
G1 X81.388 Y130.636 E7.11768
G1 X80.098 Y130.766 E7.1608
G1 X78.657 Y130.881 E7.20888
G1 X77.168 Y130.957 E7.25847
G1 X75.946 Y130.993 E7.29914
G1 X74.438 Y130.996 E7.34929
G1 X73.185 Y130.972 E7.39097
G1 X71.741 Y130.904 E7.43905
G1 X70.46 Y130.818 E7.48176
G1 X69.053 Y130.683 E7.52877
G1 X67.774 Y130.534 E7.5716
G1 X66.27 Y130.316 E7.62214
G1 X65.119 Y130.124 E7.66095
G1 X63.803 Y129.868 E7.70554
G1 X62.395 Y129.565 E7.75345
G1 X61.098 Y129.246 E7.79787
G1 X59.764 Y128.89 E7.84379
G1 X58.541 Y128.525 E7.88624
G1 X57.453 Y128.182 E7.92419
G1 X55.774 Y127.595 E7.98334
G1 X54.565 Y127.14 E8.02631
G1 X53.406 Y126.667 E8.06794
G1 X52.075 Y126.093 E8.11615
G1 X50.899 Y125.546 E8.15929
G1 X49.574 Y124.897 E8.20836
G1 X48.428 Y124.292 E8.25147
G1 X47.519 Y123.796 E8.28591
G1 X45.95 Y122.873 E8.34645
G1 X44.883 Y122.214 E8.38816
G1 X43.795 Y121.498 E8.43148
G1 X42.907 Y120.893 E8.46722
G1 X41.607 Y119.952 E8.5206
G1 X40.426 Y119.054 E8.56995
G1 X39.253 Y118.106 E8.62011
G1 X38.352 Y117.346 E8.65931
G1 X37.196 Y116.313 E8.71088
G1 X36.573 Y115.738 E8.73907
G1 X35.245 Y114.438 E8.80088
G1 X34.37 Y113.54 E8.84259
G1 X33.492 Y112.588 E8.88566
G1 X32.563 Y111.54 E8.93224
G1 X31.613 Y110.403 E8.98152
G1 X30.836 Y109.435 E9.0228
G1 X29.919 Y108.219 E9.07346
G1 X29.218 Y107.25 E9.11324
G1 X28.484 Y106.177 E9.15648
G1 X27.888 Y105.276 E9.19241
G1 X26.921 Y103.71 E9.25362
G1 X26.295 Y102.639 E9.29488
G1 X25.647 Y101.458 E9.33969
G1 X24.987 Y100.196 E9.38706
G1 X24.434 Y99.058 E9.42914
G1 X23.828 Y97.749 E9.47711
G1 X23.244 Y96.38 E9.52662
G1 X22.781 Y95.232 E9.56779
G1 X22.261 Y93.827 E9.61762
G1 X21.863 Y92.679 E9.65803
G1 X21.397 Y91.205 E9.70945
G1 X21.073 Y90.1 E9.74775
G1 X20.732 Y88.812 E9.79206
G1 X20.398 Y87.441 E9.83899
G1 X20.118 Y86.123 E9.88381
G1 X19.846 Y84.701 E9.93196
G1 X19.615 Y83.263 E9.9804
G1 X19.441 Y82.031 E10.02179
G1 X19.277 Y80.553 E10.07125
G1 X19.168 Y79.351 E10.11139
G1 X19.086 Y78.068 E10.15415
G1 X19.022 Y76.603 E10.20292
G1 X19.003 Y75.362 E10.2442
G1 X19.01 Y73.857 E10.29426
G1 X19.053 Y72.603 E10.33599
G1 X19.131 Y71.155 E10.38422
G1 X19.253 Y69.702 E10.43272
G1 X19.384 Y68.449 E10.47462
G1 X19.579 Y66.983 E10.52381
G1 X19.772 Y65.73 E10.56598
G1 X20.031 Y64.311 E10.61395
G1 X20.29 Y63.041 E10.65706
G1 X20.587 Y61.769 E10.70051
G1 X20.937 Y60.397 E10.7476
G1 X21.347 Y58.964 E10.79718
G1 X21.703 Y57.806 E10.83747
G1 X22.179 Y56.402 E10.88678
G1 X22.596 Y55.251 E10.9275
G1 X23.099 Y53.974 E10.97315
G1 X23.627 Y52.707 E11.0188
G1 X24.163 Y51.519 E11.06215
G1 X24.792 Y50.195 E11.1109
G1 X25.459 Y48.894 E11.15953
G1 X26.066 Y47.767 E11.2021
G1 X26.762 Y46.561 E11.24842
G1 X27.428 Y45.453 E11.29141
G1 X28.133 Y44.353 E11.33487
G1 X28.916 Y43.182 E11.38172
G1 X29.781 Y41.969 E11.43127
G1 X30.53 Y40.961 E11.47304
G1 X31.349 Y39.922 E11.51704
G1 X32.21 Y38.872 E11.56221
G1 X33.226 Y37.707 E11.61362
G1 X34.051 Y36.799 E11.65442
G1 X35.054 Y35.756 E11.70255
G0 F6000 X35.338 Y36.038
G1 F1200 X36.224 Y35.151 E11.74425
G1 X37.163 Y34.263 E11.78724
G1 X38.221 Y33.302 E11.83477
G1 X39.339 Y32.344 E11.88374
G1 X40.029 Y31.772 E11.91355
G1 X41.452 Y30.663 E11.97356
G1 X42.169 Y30.125 E12.00337
G1 X43.692 Y29.054 E12.0653
G1 X44.666 Y28.402 E12.10428
G1 X45.752 Y27.716 E12.14701
G1 X46.708 Y27.134 E12.18423
G1 X48.15 Y26.315 E12.23939
G1 X49.337 Y25.676 E12.28422
G1 X50.51 Y25.087 E12.32788
G1 X51.81 Y24.466 E12.3758
G1 X53.005 Y23.938 E12.41925
G1 X54.271 Y23.408 E12.4649
G1 X55.663 Y22.873 E12.5145
G1 X56.787 Y22.467 E12.55425
G1 X57.982 Y22.071 E12.59612
G1 X59.397 Y21.633 E12.64539
G1 X60.656 Y21.284 E12.68884
G1 X61.983 Y20.944 E12.7344
G1 X63.267 Y20.654 E12.77818
G1 X64.314 Y20.435 E12.81376
G1 X66.119 Y20.116 E12.87472
G1 X67.337 Y19.93 E12.91571
G1 X68.775 Y19.752 E12.9639
G1 X69.997 Y19.625 E13.00476
G1 X71.491 Y19.512 E13.05459
G1 X72.339 Y19.462 E13.08285
G1 X74.012 Y19.411 E13.13852
G1 X75.463 Y19.401 E13.18678
G1 X76.96 Y19.436 E13.23658
G1 X78.109 Y19.486 E13.27484
G1 X79.599 Y19.591 E13.32452
G1 X80.848 Y19.705 E13.36623
G1 X82.327 Y19.885 E13.41579
G1 X83.197 Y20.005 E13.445
G1 X84.934 Y20.296 E13.50357
G1 X86.205 Y20.539 E13.54661
G1 X87.465 Y20.817 E13.58953
G1 X88.795 Y21.137 E13.63503
G1 X90.223 Y21.526 E13.68425
G1 X91.463 Y21.891 E13.72724
G1 X92.671 Y22.285 E13.76951
G1 X94.054 Y22.766 E13.81821
G1 X95.326 Y23.251 E13.86349
G1 X96.538 Y23.74 E13.90695
G1 X97.894 Y24.334 E13.95619
G1 X98.694 Y24.7 E13.98545
G1 X100.32 Y25.502 E14.04575
G1 X101.436 Y26.085 E14.08763
G1 X102.545 Y26.704 E14.12987
G1 X103.736 Y27.399 E14.17574
G1 X104.843 Y28.089 E14.21912
G1 X106.066 Y28.886 E14.26768
G1 X107.229 Y29.695 E14.3148
G1 X108.246 Y30.433 E14.35659
G1 X109.421 Y31.339 E14.40594
G1 X110.406 Y32.129 E14.44794
G1 X111.386 Y32.962 E14.49071
G1 X112.184 Y33.662 E14.52602
G1 X113.52 Y34.907 E14.58676
G1 X114.139 Y35.505 E14.61539
G1 X115.425 Y36.828 E14.67675
G1 X116.245 Y37.712 E14.71685
G1 X117.221 Y38.825 E14.76609
G1 X117.808 Y39.516 E14.79625
G1 X118.833 Y40.797 E14.85081
G1 X119.475 Y41.631 E14.88582
G1 X120.428 Y42.948 E14.93989
G1 X121.263 Y44.159 E14.98881
G1 X122.021 Y45.333 E15.03529
G1 X122.707 Y46.442 E15.07866
G1 X123.336 Y47.528 E15.12041
G1 X124.03 Y48.778 E15.16796
G1 X124.661 Y50.001 E15.21373
G1 X125.099 Y50.883 E15.24648
G1 X125.825 Y52.461 E15.30426
G1 X126.217 Y53.359 E15.33685
G1 X126.889 Y55.033 E15.39684
G1 X127.307 Y56.147 E15.43642
G1 X127.773 Y57.502 E15.48407
G1 X128.173 Y58.75 E15.52766
G1 X128.533 Y59.989 E15.57058
G1 X128.83 Y61.076 E15.60806
G1 X129.205 Y62.638 E15.66148
G1 X129.498 Y63.983 E15.70727
G1 X129.775 Y65.468 E15.75751
G1 X129.926 Y66.362 E15.78767
G1 X130.168 Y68.1 E15.84603
G1 X130.275 Y68.98 E15.87552
G1 X130.423 Y70.601 E15.92965
G1 X130.524 Y72.075 E15.97879
G1 X130.574 Y73.359 E16.02153
G1 X130.601 Y74.72 E16.06681
G1 X130.589 Y75.999 E16.10935
G1 X130.546 Y77.483 E16.15873
G1 X130.461 Y78.917 E16.20651
G1 X130.365 Y80.126 E16.24685
G1 X130.211 Y81.553 E16.29458
G1 X130.041 Y82.875 E16.33892
G1 X129.807 Y84.351 E16.38862
G1 X129.658 Y85.201 E16.41732
G1 X129.294 Y86.976 E16.47759
G1 X129.037 Y88.1 E16.51594
G1 X128.694 Y89.426 E16.56149
G1 X128.307 Y90.811 E16.60932
G1 X127.916 Y92.064 E16.65298
G1 X127.498 Y93.315 E16.69685
G1 X127.063 Y94.508 E16.73908
G1 X126.638 Y95.617 E16.77858
G1 X125.967 Y97.217 E16.83629
G1 X125.59 Y98.068 E16.86725
G1 X124.809 Y99.701 E16.92745
G1 X124.403 Y100.511 E16.95759
G1 X123.548 Y102.098 E17.01755
G1 X122.95 Y103.148 E17.05774
G1 X122.273 Y104.264 E17.10115
G1 X121.679 Y105.209 E17.13828
G1 X120.687 Y106.682 E17.19734
G1 X119.968 Y107.699 E17.23877
G1 X119.224 Y108.694 E17.28009
G1 X118.343 Y109.826 E17.3278
G1 X117.409 Y110.954 E17.37651
G1 X116.571 Y111.925 E17.41917
G1 X115.597 Y112.989 E17.46715
G1 X114.704 Y113.926 E17.5102
G1 X113.777 Y114.844 E17.55359
G1 X112.795 Y115.781 E17.59873
G1 X111.877 Y116.607 E17.63981
G1 X110.747 Y117.587 E17.68956
G1 X109.638 Y118.49 E17.73712
G1 X108.663 Y119.252 E17.77828
G1 X107.447 Y120.148 E17.82852
G1 X106.445 Y120.854 E17.86929
G1 X105.238 Y121.656 E17.91748
G1 X104.18 Y122.329 E17.95919
G1 X102.866 Y123.112 E18.01006
G1 X101.834 Y123.698 E18.04954
G1 X100.539 Y124.386 E18.09831
G1 X99.425 Y124.949 E18.13982
G1 X98.226 Y125.514 E18.18391
G1 X96.966 Y126.079 E18.22984
G1 X95.608 Y126.638 E18.27868
G1 X94.475 Y127.079 E18.31912
G1 X93.206 Y127.533 E18.36395
G1 X91.871 Y127.98 E18.41077
G1 X90.64 Y128.353 E18.45355
G1 X89.342 Y128.719 E18.49841
G1 X87.894 Y129.082 E18.54806
G1 X86.661 Y129.364 E18.59013
G1 X85.235 Y129.648 E18.63849
G1 X84.001 Y129.868 E18.68018
G1 X82.528 Y130.087 E18.72971
G1 X81.348 Y130.238 E18.76928
G1 X80.058 Y130.368 E18.8124
G1 X78.637 Y130.482 E18.85981
G1 X77.154 Y130.557 E18.9092
G1 X75.945 Y130.593 E18.94943
G1 X74.444 Y130.596 E18.99935
G1 X73.204 Y130.573 E19.0406
G1 X71.946 Y130.515 E19.08249
G1 X70.498 Y130.42 E19.13075
G1 X69.276 Y130.304 E19.17158
G1 X67.831 Y130.138 E19.21996
G1 X66.334 Y129.921 E19.27027
G1 X65.195 Y129.731 E19.30868
G1 X63.702 Y129.439 E19.35927
G1 X62.49 Y129.176 E19.40052
G1 X61.193 Y128.857 E19.44495
G1 X59.879 Y128.506 E19.49018
G1 X58.491 Y128.091 E19.53837
G1 X57.246 Y127.691 E19.58186
G1 X55.913 Y127.22 E19.62888
G1 X55.03 Y126.892 E19.66021
G1 X53.391 Y126.227 E19.71904
G1 X52.243 Y125.73 E19.76065
G1 X51.067 Y125.183 E19.80379
G1 X49.76 Y124.543 E19.85219
G1 X48.614 Y123.938 E19.89529
G1 X47.398 Y123.267 E19.94148
G1 X46.285 Y122.608 E19.98451
G1 X45.103 Y121.88 E20.03068
G1 X44.015 Y121.164 E20.074
G1 X43.133 Y120.563 E20.1095
G1 X41.843 Y119.629 E20.16247
G1 X40.677 Y118.743 E20.21117
G1 X39.509 Y117.799 E20.26112
G1 X38.879 Y117.273 E20.28842
G1 X37.602 Y116.141 E20.34518
G1 X36.603 Y115.214 E20.39051
G1 X35.53 Y114.158 E20.44058
G1 X34.896 Y113.513 E20.47066
G1 X33.668 Y112.187 E20.53077
G1 X32.87 Y111.284 E20.57085
G1 X31.923 Y110.151 E20.61997
G1 X31.155 Y109.194 E20.66078
G1 X30.242 Y107.983 E20.71122
G1 X29.548 Y107.024 E20.75059
G1 X28.714 Y105.802 E20.7998
G1 X28.041 Y104.772 E20.84072
G1 X27.364 Y103.671 E20.88371
G1 X26.81 Y102.735 E20.91989
G1 X25.998 Y101.266 E20.97571
G1 X25.347 Y100.021 E21.02244
G1 X24.794 Y98.883 E21.06452
G1 X24.196 Y97.592 E21.11185
G1 X23.614 Y96.228 E21.16117
G1 X23.156 Y95.093 E21.20188
G1 X22.699 Y93.861 E21.24558
G1 X22.244 Y92.558 E21.29149
G1 X21.833 Y91.261 E21.33674
G1 X21.46 Y89.998 E21.38054
G1 X21.075 Y88.539 E21.43073
G1 X20.789 Y87.358 E21.47114
G1 X20.509 Y86.04 E21.51596
G1 X20.24 Y84.637 E21.56347
G1 X20.035 Y83.367 E21.60626
G1 X19.839 Y81.986 E21.65265
G1 X19.694 Y80.692 E21.69596
G1 X19.568 Y79.325 E21.74162
G1 X19.475 Y77.855 E21.79061
G1 X19.422 Y76.597 E21.83249
G1 X19.403 Y75.356 E21.87377
G1 X19.41 Y73.871 E21.92316
G1 X19.46 Y72.448 E21.97052
G1 X19.529 Y71.188 E22.01249
G1 X19.634 Y69.922 E22.05474
G1 X19.78 Y68.502 E22.10222
G1 X19.974 Y67.042 E22.15121
G1 X20.165 Y65.801 E22.19297
G1 X20.391 Y64.559 E22.23496
G1 X20.68 Y63.132 E22.28338
G1 X21.02 Y61.679 E22.33301
G1 X21.321 Y60.506 E22.37329
G1 X21.682 Y59.24 E22.41708
G1 X22.082 Y57.934 E22.46251
