;FLAVOR:Marlin
;TIME:10496
;Filament used: 7.2423m
;Layer height: 0.2
;MINX:19.616
;MINY:19.358
;MINZ:0.2
;MAXX:132.256
;MAXY:131.482
;MAXZ:5
;Generated with Cura_SteamEngine 5.2.1
M140 S50
M105
M190 S50
M104 S200
M105
M109 S200
M82 ;absolute extrusion mode
M201 X500.00 Y500.00 Z100.00 E5000.00 ;Setup machine max acceleration
M203 X500.00 Y500.00 Z10.00 E50.00 ;Setup machine max feedrate
M204 P500.00 R1000.00 T500.00 ;Setup Print/Retract/Travel acceleration
M205 X8.00 Y8.00 Z0.40 E5.00 ;Setup Jerk
M220 S100 ;Reset Feedrate
M221 S100 ;Reset Flowrate

G28 ;Home

G92 E0 ;Reset Extruder
G1 Z2.0 F3000 ;Move Z Axis up
G1 X10.1 Y20 Z0.28 F5000.0 ;Move to start position
G1 X10.1 Y100.0 Z0.28 F1500.0 E8 ;Draw the first line
G1 X10.4 Y100.0 Z0.28 F5000.0 ;Move to side a little
G1 X10.4 Y20 Z0.28 F1500.0 E15 ;Draw the second line
G92 E0 ;Reset Extruder
G1 Z2.0 F3000 ;Move Z Axis up

G92 E0
G92 E0
G1 F2700 E-5
;LAYER_COUNT:25
;LAYER:0
M107
G0 F6000 X36.314 Y35.375 Z0.2
;TYPE:SKIRT
G1 F2700 E0
G1 F1200 X37.216 Y34.505 E0.04168
G1 X38.301 Y33.52 E0.09042
G1 X39.054 Y32.86 E0.12373
G1 X40.346 Y31.79 E0.17952
G1 X41.125 Y31.165 E0.21274
G1 X41.439 Y30.923 E0.22592
G1 X42.574 Y30.079 E0.27297
G1 X43.537 Y29.391 E0.31233
G1 X44.737 Y28.583 E0.36045
G1 X45.782 Y27.909 E0.40181
G1 X46.893 Y27.237 E0.44499
G1 X47.871 Y26.668 E0.48263
G1 X49.509 Y25.78 E0.5446
G1 X50.598 Y25.221 E0.58531
G1 X51.855 Y24.621 E0.63164
G1 X52.78 Y24.197 E0.66548
G1 X54.186 Y23.599 E0.7163
G1 X55.524 Y23.065 E0.76421
G1 X56.826 Y22.588 E0.81033
G1 X58.156 Y22.13 E0.85712
G1 X59.465 Y21.721 E0.90273
G1 X60.641 Y21.38 E0.94346
G1 X61.869 Y21.06 E0.98566
G1 X62.895 Y20.81 E1.02079
G1 X64.813 Y20.406 E1.08598
G1 X66.007 Y20.183 E1.12638
G1 X67.511 Y19.947 E1.17701
G1 X68.577 Y19.798 E1.21281
G1 X69.891 Y19.649 E1.2568
G1 X71.205 Y19.529 E1.30068
G1 X72.888 Y19.426 E1.35677
G1 X74.177 Y19.374 E1.39967
G1 X75.557 Y19.358 E1.44558
G1 X76.539 Y19.362 E1.47824
G1 X78.288 Y19.419 E1.53644
G1 X79.533 Y19.488 E1.57791
G1 X81.137 Y19.624 E1.63145
G1 X82.355 Y19.751 E1.67218
G1 X83.501 Y19.902 E1.71063
G1 X84.66 Y20.074 E1.7496
G1 X86.426 Y20.389 E1.80926
G1 X87.621 Y20.628 E1.8498
G1 X89.021 Y20.952 E1.89759
G1 X89.949 Y21.185 E1.92942
G1 X91.664 Y21.665 E1.98865
G1 X92.905 Y22.042 E2.03179
G1 X94.053 Y22.426 E2.07205
G1 X95.415 Y22.912 E2.12015
G1 X96.887 Y23.485 E2.17268
G1 X98.031 Y23.957 E2.21385
G1 X99.104 Y24.436 E2.25293
G1 X100.438 Y25.062 E2.30194
G1 X101.735 Y25.717 E2.35027
G1 X102.948 Y26.36 E2.39593
G1 X104.04 Y26.98 E2.4377
G1 X105.235 Y27.687 E2.48388
G1 X106.467 Y28.465 E2.53234
G1 X107.476 Y29.13 E2.57253
G1 X108.65 Y29.949 E2.62014
G1 X109.423 Y30.508 E2.65187
G1 X110.932 Y31.67 E2.71522
G1 X111.881 Y32.437 E2.7558
G1 X113 Y33.394 E2.80477
G1 X113.688 Y34.002 E2.83531
G1 X114.916 Y35.15 E2.89122
G1 X115.869 Y36.084 E2.9356
G1 X116.885 Y37.135 E2.98422
G1 X117.715 Y38.029 E3.0248
G1 X118.615 Y39.054 E3.07017
G1 X119.526 Y40.134 E3.11716
G1 X120.423 Y41.264 E3.16514
G1 X121.207 Y42.291 E3.20812
G1 X122.026 Y43.433 E3.25486
G1 X122.771 Y44.514 E3.29853
G1 X123.5 Y45.636 E3.34303
G1 X124.205 Y46.767 E3.38736
G1 X124.936 Y48.023 E3.43569
G1 X125.541 Y49.111 E3.4771
G1 X126.25 Y50.478 E3.52831
G1 X126.662 Y51.303 E3.55898
G1 X127.408 Y52.914 E3.61803
G1 X127.92 Y54.088 E3.66063
G1 X128.359 Y55.176 E3.69965
G1 X128.826 Y56.404 E3.74335
G1 X129.379 Y58.002 E3.79959
G1 X129.784 Y59.256 E3.84342
G1 X130.169 Y60.564 E3.88877
G1 X130.499 Y61.77 E3.93036
G1 X130.792 Y62.97 E3.97144
G1 X131.091 Y64.315 E4.01727
G1 X131.379 Y65.815 E4.06807
G1 X131.586 Y67.034 E4.1092
G1 X131.774 Y68.358 E4.15367
G1 X131.946 Y69.763 E4.20075
G1 X132.078 Y71.215 E4.24925
G1 X132.155 Y72.25 E4.28377
G1 X132.231 Y73.87 E4.33771
G1 X132.256 Y74.75 E4.36699
G1 X132.255 Y76.39 E4.42153
G1 X132.219 Y77.867 E4.47067
G1 X132.143 Y79.274 E4.51754
G1 X132.065 Y80.389 E4.55471
G1 X131.907 Y81.972 E4.60763
G1 X131.807 Y82.822 E4.63609
G1 X131.556 Y84.523 E4.69328
G1 X131.313 Y85.948 E4.74136
G1 X131.03 Y87.348 E4.78887
G1 X130.742 Y88.642 E4.83296
G1 X130.426 Y89.887 E4.87568
G1 X130.051 Y91.261 E4.92305
G1 X129.678 Y92.48 E4.96545
G1 X129.314 Y93.607 E5.00484
G1 X128.843 Y94.933 E5.05164
G1 X128.486 Y95.886 E5.08549
G1 X128.346 Y96.24 E5.09815
G1 X127.727 Y97.724 E5.15163
G1 X127.191 Y98.941 E5.19586
G1 X126.722 Y99.931 E5.2323
G1 X126.07 Y101.243 E5.28103
G1 X125.383 Y102.527 E5.32946
G1 X124.953 Y103.303 E5.35897
G1 X123.972 Y104.944 E5.42256
G1 X123.507 Y105.691 E5.45182
G1 X122.654 Y106.979 E5.50321
G1 X121.842 Y108.146 E5.55049
G1 X120.88 Y109.441 E5.60415
G1 X120.111 Y110.433 E5.64589
G1 X119.336 Y111.377 E5.68652
G1 X118.615 Y112.228 E5.72362
G1 X117.551 Y113.414 E5.77661
G1 X116.592 Y114.435 E5.8232
G1 X115.586 Y115.445 E5.87061
G1 X114.671 Y116.325 E5.91284
G1 X113.588 Y117.308 E5.96148
G1 X112.816 Y117.986 E5.99566
G1 X111.519 Y119.061 E6.05169
G1 X110.538 Y119.839 E6.09333
G1 X109.463 Y120.641 E6.13794
G1 X108.511 Y121.327 E6.17697
G1 X107.134 Y122.259 E6.23227
G1 X106.057 Y122.952 E6.27486
G1 X104.966 Y123.613 E6.31729
G1 X103.794 Y124.291 E6.36233
G1 X102.44 Y125.023 E6.41352
G1 X101.239 Y125.64 E6.45843
G1 X100.008 Y126.229 E6.50382
G1 X98.773 Y126.79 E6.54893
G1 X97.503 Y127.323 E6.59474
G1 X96.362 Y127.777 E6.63559
G1 X95.146 Y128.224 E6.67868
G1 X93.866 Y128.665 E6.7237
G1 X92.395 Y129.122 E6.77494
G1 X91.15 Y129.479 E6.81801
G1 X89.754 Y129.84 E6.86597
G1 X88.919 Y130.042 E6.89455
G1 X87.034 Y130.44 E6.95862
G1 X85.856 Y130.66 E6.99848
G1 X84.384 Y130.891 E7.04804
G1 X82.965 Y131.085 E7.09568
G1 X82.015 Y131.188 E7.12746
G1 X80.65 Y131.313 E7.17305
G1 X79.013 Y131.413 E7.2276
G1 X77.702 Y131.466 E7.27124
G1 X76.323 Y131.482 E7.3171
G1 X74.978 Y131.471 E7.36184
G1 X73.581 Y131.421 E7.40833
G1 X72.364 Y131.357 E7.44887
G1 X71.064 Y131.251 E7.49225
G1 X69.61 Y131.102 E7.54086
G1 X68.331 Y130.933 E7.58377
G1 X66.898 Y130.715 E7.63198
G1 X65.483 Y130.459 E7.67981
G1 X64.304 Y130.222 E7.71981
G1 X63.031 Y129.928 E7.76326
G1 X61.432 Y129.522 E7.81813
G1 X60.172 Y129.163 E7.86171
G1 X58.99 Y128.803 E7.90281
G1 X57.647 Y128.352 E7.94993
G1 X56.489 Y127.938 E7.99083
G1 X55.175 Y127.427 E8.03772
G1 X53.837 Y126.877 E8.08584
G1 X52.602 Y126.326 E8.13081
G1 X51.434 Y125.777 E8.17374
G1 X50.323 Y125.217 E8.21512
G1 X49.03 Y124.535 E8.26374
G1 X47.886 Y123.888 E8.30745
G1 X46.506 Y123.07 E8.36081
G1 X45.487 Y122.425 E8.40092
G1 X44.298 Y121.643 E8.44826
G1 X43.367 Y120.992 E8.48604
G1 X42.191 Y120.137 E8.5344
G1 X41.14 Y119.323 E8.57861
G1 X40.019 Y118.42 E8.62649
G1 X38.896 Y117.46 E8.67563
G1 X38.196 Y116.843 E8.70666
G1 X36.919 Y115.65 E8.76479
G1 X35.986 Y114.736 E8.80823
G1 X35.118 Y113.836 E8.84982
G1 X34.118 Y112.76 E8.89867
G1 X33.149 Y111.654 E8.94758
G1 X32.363 Y110.72 E8.98818
G1 X31.549 Y109.696 E9.03169
G1 X30.687 Y108.569 E9.07888
G1 X29.92 Y107.502 E9.12259
G1 X29.093 Y106.307 E9.17092
G1 X28.369 Y105.194 E9.21508
G1 X27.684 Y104.094 E9.25818
G1 X27.003 Y102.927 E9.30312
G1 X26.287 Y101.64 E9.35211
G1 X25.666 Y100.44 E9.39705
G1 X25.093 Y99.28 E9.44008
G1 X24.56 Y98.121 E9.48251
G1 X23.96 Y96.749 E9.53232
G1 X23.45 Y95.486 E9.57762
G1 X23.027 Y94.375 E9.61716
G1 X22.559 Y93.027 E9.66462
G1 X22.192 Y91.914 E9.7036
G1 X21.708 Y90.279 E9.76031
G1 X21.48 Y89.455 E9.78875
G1 X21.022 Y87.575 E9.8531
G1 X20.759 Y86.379 E9.89383
G1 X20.494 Y84.995 E9.9407
G1 X20.298 Y83.839 E9.9797
G1 X20.074 Y82.258 E10.03281
G1 X19.934 Y81.085 E10.0721
G1 X19.796 Y79.573 E10.1226
G1 X19.703 Y78.249 E10.16674
G1 X19.645 Y76.926 E10.21079
G1 X19.616 Y75.678 E10.25231
G1 X19.624 Y74.252 E10.29974
G1 X19.642 Y73.383 E10.32865
G1 X19.733 Y71.588 E10.38843
G1 X19.813 Y70.443 E10.4266
G1 X19.969 Y68.891 E10.47848
G1 X20.124 Y67.634 E10.52061
G1 X20.323 Y66.321 E10.56478
G1 X20.586 Y64.785 E10.61661
G1 X20.834 Y63.559 E10.65821
G1 X21.138 Y62.19 E10.70485
G1 X21.49 Y60.803 E10.75245
G1 X21.821 Y59.607 E10.79372
G1 X22.27 Y58.141 E10.84472
G1 X22.655 Y56.971 E10.88568
G1 X23.092 Y55.757 E10.9286
G1 X23.49 Y54.709 E10.96588
G1 X24.151 Y53.117 E11.02322
G1 X24.695 Y51.888 E11.06792
G1 X25.244 Y50.735 E11.11039
G1 X25.658 Y49.898 E11.14145
G1 X26.529 Y48.258 E11.20321
G1 X27.134 Y47.179 E11.24436
G1 X27.806 Y46.058 E11.28783
G1 X28.534 Y44.896 E11.33343
G1 X29.262 Y43.805 E11.37706
G1 X29.889 Y42.9 E11.41368
G1 X30.973 Y41.433 E11.47434
G1 X31.763 Y40.412 E11.51728
G1 X32.565 Y39.432 E11.5594
G1 X33.186 Y38.697 E11.5914
G1 X34.453 Y37.29 E11.65438
G1 X35.25 Y36.444 E11.69304
G1 X36.314 Y35.375 E11.7432
G0 F6000 X36.593 Y35.662
G1 F1200 X37.485 Y34.801 E11.78444
G1 X38.418 Y33.952 E11.82639
G1 X39.565 Y32.951 E11.87703
G1 X40.597 Y32.102 E11.92147
G1 X41.376 Y31.477 E11.95469
G1 X41.678 Y31.244 E11.96738
G1 X42.808 Y30.403 E12.01423
G1 X43.76 Y29.722 E12.05316
G1 X44.817 Y29.009 E12.09557
G1 X45.989 Y28.251 E12.14199
G1 X47.269 Y27.479 E12.19171
G1 X48.357 Y26.854 E12.23344
G1 X49.544 Y26.214 E12.27829
G1 X50.771 Y25.582 E12.3242
G1 X52.022 Y24.985 E12.3703
G1 X53.248 Y24.429 E12.41507
G1 X54.501 Y23.902 E12.46029
G1 X55.662 Y23.441 E12.50183
G1 X57.129 Y22.905 E12.55378
G1 X58.276 Y22.511 E12.59412
G1 X59.402 Y22.158 E12.63337
G1 X60.42 Y21.857 E12.66867
G1 X62.147 Y21.403 E12.72807
G1 X63.325 Y21.123 E12.76834
G1 X64.733 Y20.83 E12.81617
G1 X66.07 Y20.578 E12.86142
G1 X67.567 Y20.343 E12.91182
G1 X68.942 Y20.155 E12.95798
G1 X69.934 Y20.046 E12.99117
G1 X71.23 Y19.928 E13.03446
G1 X72.727 Y19.835 E13.08434
G1 X74.182 Y19.774 E13.13278
G1 X75.555 Y19.758 E13.17845
G1 X76.861 Y19.768 E13.22189
G1 X78.268 Y19.818 E13.26871
G1 X79.5 Y19.886 E13.30975
G1 X80.928 Y20.006 E13.35742
G1 X82.303 Y20.148 E13.40339
G1 X83.63 Y20.324 E13.44792
G1 X84.921 Y20.522 E13.49136
G1 X86.349 Y20.781 E13.53963
G1 X87.531 Y21.018 E13.57972
G1 X88.923 Y21.34 E13.62724
G1 X90.143 Y21.651 E13.66912
G1 X91.55 Y22.048 E13.71774
G1 X92.779 Y22.421 E13.76046
G1 X93.927 Y22.805 E13.80072
G1 X95.271 Y23.284 E13.84818
G1 X96.576 Y23.791 E13.89474
G1 X97.546 Y24.185 E13.92957
G1 X99.092 Y24.87 E13.98581
G1 X99.956 Y25.272 E14.0175
G1 X101.402 Y25.996 E14.07129
G1 X102.751 Y26.708 E14.12202
G1 X103.843 Y27.328 E14.16379
G1 X105.022 Y28.025 E14.20934
G1 X106.111 Y28.712 E14.25217
G1 X107.248 Y29.458 E14.2974
G1 X108.263 Y30.165 E14.33854
G1 X109.459 Y31.035 E14.38773
G1 X110.682 Y31.982 E14.43917
G1 X111.621 Y32.741 E14.47933
G1 X112.735 Y33.694 E14.52809
G1 X113.658 Y34.516 E14.5692
G1 X114.637 Y35.437 E14.61391
G1 X115.582 Y36.362 E14.65789
G1 X116.479 Y37.289 E14.70079
G1 X117.414 Y38.293 E14.74642
G1 X118.429 Y39.45 E14.79761
G1 X118.998 Y40.12 E14.82685
G1 X120.003 Y41.376 E14.88035
G1 X120.882 Y42.525 E14.92847
G1 X121.697 Y43.661 E14.97497
G1 X122.436 Y44.732 E15.01825
G1 X123.162 Y45.849 E15.06256
G1 X123.859 Y46.968 E15.10641
G1 X124.587 Y48.219 E15.15455
G1 X125.186 Y49.296 E15.19554
G1 X125.892 Y50.657 E15.24653
G1 X126.451 Y51.788 E15.28849
G1 X127.042 Y53.075 E15.33559
G1 X127.549 Y54.238 E15.37779
G1 X128.053 Y55.491 E15.42271
G1 X128.448 Y56.535 E15.45984
G1 X128.999 Y58.126 E15.51584
G1 X129.401 Y59.369 E15.55929
G1 X129.738 Y60.51 E15.59886
G1 X130.025 Y61.537 E15.63433
G1 X130.448 Y63.254 E15.69314
G1 X130.633 Y64.077 E15.7212
G1 X130.985 Y65.883 E15.7824
G1 X131.19 Y67.09 E15.82312
G1 X131.378 Y68.414 E15.86759
G1 X131.547 Y69.799 E15.914
G1 X131.679 Y71.245 E15.96229
G1 X131.756 Y72.28 E15.99681
G1 X131.831 Y73.881 E16.05012
G1 X131.86 Y75.103 E16.09078
G1 X131.853 Y76.576 E16.13977
G1 X131.82 Y77.846 E16.18202
G1 X131.744 Y79.253 E16.22889
G1 X131.638 Y80.689 E16.27678
G1 X131.527 Y81.77 E16.31292
G1 X131.364 Y83.117 E16.35805
G1 X131.161 Y84.464 E16.40336
G1 X130.984 Y85.529 E16.43927
G1 X130.64 Y87.263 E16.49807
G1 X130.354 Y88.544 E16.54172
G1 X129.999 Y89.939 E16.5896
G1 X129.668 Y91.144 E16.63116
G1 X129.295 Y92.363 E16.67356
G1 X128.827 Y93.795 E16.72367
G1 X128.467 Y94.798 E16.75911
G1 X127.977 Y96.086 E16.80495
G1 X127.361 Y97.564 E16.8582
G1 X126.968 Y98.466 E16.89093
G1 X126.287 Y99.912 E16.94409
G1 X125.717 Y101.054 E16.98654
G1 X125.033 Y102.333 E17.03478
G1 X124.414 Y103.436 E17.07685
G1 X123.716 Y104.596 E17.12188
G1 X123.167 Y105.48 E17.15649
G1 X122.224 Y106.9 E17.21318
G1 X121.521 Y107.908 E17.25406
G1 X120.668 Y109.058 E17.30168
G1 X119.802 Y110.179 E17.34879
G1 X119.027 Y111.123 E17.38942
G1 X118.099 Y112.21 E17.43695
G1 X117.133 Y113.278 E17.48485
G1 X116.309 Y114.153 E17.52483
G1 X115.44 Y115.027 E17.56582
G1 X114.653 Y115.793 E17.60235
G1 X113.324 Y117.008 E17.66224
G1 X112.552 Y117.686 E17.69641
G1 X111.269 Y118.749 E17.75183
G1 X110.298 Y119.518 E17.79302
G1 X109.07 Y120.433 E17.84396
G1 X108.278 Y121.002 E17.87639
G1 X106.917 Y121.923 E17.93105
G1 X105.85 Y122.61 E17.97326
G1 X104.759 Y123.271 E18.01569
G1 X103.603 Y123.94 E18.06011
G1 X102.422 Y124.58 E18.10479
G1 X101.368 Y125.129 E18.14432
G1 X99.841 Y125.865 E18.20069
G1 X98.618 Y126.421 E18.24538
G1 X97.353 Y126.952 E18.29101
G1 X96.224 Y127.401 E18.33142
G1 X95.008 Y127.848 E18.37451
G1 X93.747 Y128.283 E18.41888
G1 X92.283 Y128.738 E18.46987
G1 X91.049 Y129.092 E18.51257
G1 X89.66 Y129.451 E18.56028
G1 X88.506 Y129.725 E18.59973
G1 X86.958 Y130.048 E18.65233
G1 X86.141 Y130.205 E18.68
G1 X84.328 Y130.495 E18.74106
G1 X82.922 Y130.687 E18.78826
G1 X81.836 Y130.804 E18.82459
G1 X80.625 Y130.914 E18.86504
G1 X79.172 Y131.004 E18.91346
G1 X77.697 Y131.066 E18.96256
G1 X76.325 Y131.082 E19.00819
G1 X75.322 Y131.078 E19.04155
G1 X73.6 Y131.022 E19.09886
G1 X72.397 Y130.958 E19.13893
G1 X71.097 Y130.852 E19.18231
G1 X69.662 Y130.706 E19.23028
G1 X68.383 Y130.537 E19.27319
G1 X67.28 Y130.373 E19.31028
G1 X65.56 Y130.066 E19.36839
G1 X64.394 Y129.832 E19.40795
G1 X63.121 Y129.538 E19.4514
G1 X61.541 Y129.137 E19.50562
G1 X60.287 Y128.78 E19.54898
G1 X59.117 Y128.424 E19.58966
G1 X57.78 Y127.975 E19.63657
G1 X56.634 Y127.565 E19.67705
G1 X55.156 Y126.989 E19.72981
G1 X54.301 Y126.64 E19.76053
G1 X52.931 Y126.036 E19.81033
G1 X51.614 Y125.42 E19.85868
G1 X50.503 Y124.86 E19.90006
G1 X49.227 Y124.187 E19.94805
G1 X47.915 Y123.443 E19.99821
G1 X46.72 Y122.732 E20.04446
G1 X45.57 Y122.003 E20.08975
G1 X44.802 Y121.501 E20.12026
G1 X43.467 Y120.572 E20.17436
G1 X42.436 Y119.82 E20.2168
G1 X41.253 Y118.902 E20.26661
G1 X40.278 Y118.115 E20.30828
G1 X39.161 Y117.16 E20.35716
G1 X38.217 Y116.321 E20.39917
G1 X37.198 Y115.363 E20.44568
G1 X36.274 Y114.458 E20.4887
G1 X35.289 Y113.435 E20.53593
G1 X34.419 Y112.496 E20.57851
G1 X33.454 Y111.395 E20.62721
G1 X32.676 Y110.471 E20.66738
G1 X31.862 Y109.447 E20.71089
G1 X31.012 Y108.335 E20.75744
G1 X30.152 Y107.137 E20.80649
G1 X29.607 Y106.354 E20.83822
G1 X28.8 Y105.125 E20.88712
G1 X28.214 Y104.196 E20.92365
G1 X27.256 Y102.563 E20.98662
G1 X26.642 Y101.456 E21.02873
G1 X26.097 Y100.405 E21.0681
G1 X25.457 Y99.113 E21.11606
G1 X24.853 Y97.797 E21.16422
G1 X24.454 Y96.891 E21.19715
G1 X23.823 Y95.342 E21.25278
G1 X23.405 Y94.244 E21.29185
G1 X22.937 Y92.896 E21.33931
G1 X22.572 Y91.789 E21.37808
G1 X22.094 Y90.173 E21.43413
G1 X21.777 Y89.007 E21.47432
G1 X21.449 Y87.647 E21.52085
G1 X21.151 Y86.304 E21.56661
G1 X20.922 Y85.115 E21.60688
G1 X20.694 Y83.783 E21.65183
G1 X20.471 Y82.208 E21.70473
G1 X20.332 Y81.048 E21.74359
G1 X20.211 Y79.741 E21.78725
G1 X20.102 Y78.232 E21.83757
G1 X20.051 Y77.087 E21.87569
G1 X20.016 Y75.68 E21.9225
G1 X20.024 Y74.26 E21.96973
G1 X20.055 Y73.042 E22.01026
G1 X20.132 Y71.61 E22.05795
G1 X20.212 Y70.472 E22.0959
G1 X20.366 Y68.938 E22.14717
G1 X20.52 Y67.694 E22.18887
G1 X20.746 Y66.208 E22.23886
G1 X20.978 Y64.864 E22.28422
